Adwaita++-Light/panel/22/slack-indicator.svg

<svg height="22" width="22" xmlns="http://www.w3.org/2000/svg">
  <path d="m8.5 3.9999998c-.825582 0-1.5.674419-1.5 1.5 0 .8255815.674418 1.5 1.5 1.5h1.500001v-1.5c0-.825581-.67442-1.5-1.500001-1.5zm4.001953 0c-.825581 0-1.5.6732269-1.5 1.4980469v4.0039062c0 .8248201.674419 1.4980471 1.5 1.4980471.825583 0 1.5-.673227 1.5-1.4980471v-4.0039062c0-.82482-.674417-1.4980469-1.5-1.4980469zm-8.003906 4c-.82482 0-1.498047.6744185-1.498047 1.5 0 .8255812.673227 1.5000002 1.498047 1.5000002h4.003907c.82482 0 1.4980455-.674419 1.4980455-1.5000002 0-.8255815-.6732255-1.5-1.4980455-1.5zm12.003906 0c-.825581 0-1.499999.6744185-1.499999 1.5v1.5000002h1.499999c.82558 0 1.5-.674419 1.5-1.5000002 0-.8255815-.67442-1.5-1.5-1.5zm-12.001953 4.0000002c-.825581 0-1.5.674419-1.5 1.5 0 .825582.674419 1.5 1.5 1.5.825582 0 1.5-.674418 1.5-1.5v-1.5zm4 0c-.825581 0-1.5.673227-1.5 1.498047v4.003906c0 .82482.674419 1.498047 1.5 1.498047s1.500001-.673227 1.500001-1.498047v-4.003906c0-.82482-.67442-1.498047-1.500001-1.498047zm3.998048 0c-.824821 0-1.498047.674419-1.498047 1.5s.673227 1.5 1.498047 1.5h4.003905c.824819 0 1.498047-.674419 1.498047-1.5s-.673228-1.5-1.498047-1.5zm-1.498047 4v1.5c0 .825581.674419 1.5 1.5 1.5.825582 0 1.5-.674419 1.5-1.5s-.674418-1.5-1.5-1.5z" fill="#444"/>
</svg>

<svg xmlns="http://www.w3.org/2000/svg" width="22" height="22" version="1.1">
 <defs>
  <style id="current-color-scheme" type="text/css">
   .ColorScheme-Text { color:#444444; } .ColorScheme-Highlight { color:#4285f4; }
  </style>
 </defs>
 <path style="fill:currentColor" class="ColorScheme-Text" d="m 8.5,3.9999998 c -0.825582,0 -1.5,0.674419 -1.5,1.5 0,0.8255815 0.674418,1.5 1.5,1.5 h 1.500001 v -1.5 c 0,-0.825581 -0.67442,-1.5 -1.500001,-1.5 z m 4.001953,0 c -0.825581,0 -1.5,0.6732269 -1.5,1.4980469 v 4.0039062 c 0,0.8248201 0.674419,1.4980471 1.5,1.4980471 0.825583,0 1.5,-0.673227 1.5,-1.4980471 V 5.4980467 c 0,-0.82482 -0.674417,-1.4980469 -1.5,-1.4980469 z m -8.003906,4 C 3.673227,7.9999998 3,8.6744183 3,9.4999998 3,10.325581 3.673227,11 4.498047,11 h 4.003907 c 0.82482,0 1.4980455,-0.674419 1.4980455,-1.5000002 0,-0.8255815 -0.6732255,-1.5 -1.4980455,-1.5 z m 12.003906,0 c -0.825581,0 -1.499999,0.6744185 -1.499999,1.5 V 11 h 1.499999 c 0.82558,0 1.5,-0.674419 1.5,-1.5000002 0,-0.8255815 -0.67442,-1.5 -1.5,-1.5 z M 4.5,12 C 3.674419,12 3,12.674419 3,13.5 3,14.325582 3.674419,15 4.5,15 5.325582,15 6,14.325582 6,13.5 V 12 Z m 4,0 C 7.674419,12 7,12.673227 7,13.498047 v 4.003906 C 7,18.326773 7.674419,19 8.5,19 c 0.825581,0 1.500001,-0.673227 1.500001,-1.498047 V 13.498047 C 10.000001,12.673227 9.325581,12 8.5,12 Z m 3.998048,0 c -0.824821,0 -1.498047,0.674419 -1.498047,1.5 0,0.825581 0.673227,1.5 1.498047,1.5 h 4.003905 C 17.326772,15 18,14.325581 18,13.5 18,12.674419 17.326772,12 16.501953,12 Z m -1.498047,4 v 1.5 c 0,0.825581 0.674419,1.5 1.5,1.5 0.825582,0 1.5,-0.674419 1.5,-1.5 0,-0.825581 -0.674418,-1.5 -1.5,-1.5 z"/>
</svg>
